X: 08053
T: JARED'S JIG
C: Bob McQuillen 9 Jan 91
B: Bob's Note Book 8 #53
%R: jig
Z: 2021 John Chambers <jc:trillian.mit.edu>
M: 6/8
L: 1/8
K: Am
EG \
| AcB AGc | AGE G2g | ega gec | dcA FDF |\
| AcB AGc | AGE Gce | dcA GED | EAA A :|
|: cd \
| eag ede | c2B Acd | eag ecA | c2d ecd |\
| eag ece | dcA GEG | cea ged | cAA A :|
%%begintext align
%% If you were
%% to look in Book V you would find Harry's Jig, for Harry
%% Nelson of Francestown. Well, this one is for Jared Nelson,
%% Harry's son, and one of my great school-boy friends.
%% Jared's also a great skier, and perhaps some day we'll all
%% see him doing real good stuff on the tube -- World Cup, Olympics,
%% whatever. Who knows? Good Luck, Jared!
%%endtext

%%sep 1 1 500

%%sep 1 1 500

